X:1
T: Miss Forsyth of Huntly's Reel
C:William Marshall
R:Reel
Q: 232
K:Am
M:4/4
L:1/8
|:EA AB c2 ce|FG Bc dB GB|EA AB c2 ce|EE E^G A2 A2|
EA AB c2 ce|FG Bc dB GB|EA AB c2 ce|EE E^G A2 A2|
cd e^f ga ge|EA Bc dB GB|cd e^f ga ge|dB gB A2 A2|
cd e^f ga ge|EA Bc dB GB|ce dB cA BG|EE E^G A2 A2:|
